apps/wow-docs/public/box/box_usage.svg

<svg xmlns="http://www.w3.org/2000/svg" width="908" height="218" fill="none" viewBox="0 0 908 218"><path fill="#fff" d="M275.5 55a7.5 7.5 0 0 1 7.5-7.5h342a7.5 7.5 0 0 1 7.5 7.5v79a7.5 7.5 0 0 1-7.5 7.5H283a7.5 7.5 0 0 1-7.5-7.5z"/><path stroke="#C2C2C2" d="M275.5 55a7.5 7.5 0 0 1 7.5-7.5h342a7.5 7.5 0 0 1 7.5 7.5v79a7.5 7.5 0 0 1-7.5 7.5H283a7.5 7.5 0 0 1-7.5-7.5z"/><path fill="#121212" d="M308.648 76.776h-3.504v10.336h-1.664V76.776h-3.52v-1.44h8.688zm6.125 5.536q-.113-.928-.656-1.552-.545-.64-1.568-.64-.929 0-1.616.64-.672.624-.816 1.568zm-6.256.64q0-1.232.512-2.192.511-.96 1.408-1.488.912-.544 2.08-.544 1.647 0 2.416.8.783.8 1.056 1.472.368.896.368 1.984 0 .225-.016.4a3 3 0 0 0-.016.208h-6.208q.144.96.832 1.568a2.32 2.32 0 0 0 1.584.608q.72 0 1.184-.224.48-.225.656-.416.175-.192.336-.432l1.344.608q-.384.784-1.28 1.328-.897.528-2.256.528-1.168 0-2.08-.528a3.8 3.8 0 0 1-1.408-1.504q-.513-.96-.512-2.176m13.752-.016 3.088 4.176h-2.064l-2-2.832-1.984 2.832h-2.064l3.04-4.176-3.104-4.192h2.08l2.032 2.912 2.016-2.912h2.08zm7.717 4.224q-1.088 0-1.792-.72t-.72-1.856v-4.32h-1.44v-1.456h1.44V76.52h1.664v2.288h1.792v1.456h-1.792v4.24q0 .432.24.752t.608.336q.272 0 .512-.048.257-.065.336-.08l.352 1.552q-.785.144-1.2.144M301.448 111.88a4.24 4.24 0 0 0 1.312 1.52q.832.56 1.712.56 1.152 0 1.872-.544.736-.56.736-1.456 0-.624-.368-1.04a2.8 2.8 0 0 0-.912-.672 15 15 0 0 0-1.472-.592q-1.152-.4-1.856-.752a3.45 3.45 0 0 1-1.184-1.008q-.496-.656-.496-1.68 0-.912.496-1.584.512-.672 1.376-1.024t1.92-.352q1.264 0 2.272.672t1.424 1.92l-1.264.448a2.4 2.4 0 0 0-.944-1.312 2.55 2.55 0 0 0-1.456-.496q-1.04 0-1.744.48-.688.463-.688 1.248 0 .608.368 1.024t.896.688q.544.256 1.488.592 1.152.416 1.856.784.704.352 1.2 1.008.496.64.496 1.664 0 .944-.512 1.68-.496.736-1.408 1.136t-2.08.4a4.4 4.4 0 0 1-2.4-.688q-1.088-.704-1.824-1.984zm10.609-.288q0 1.024.576 1.696.576.656 1.488.656 1.025 0 1.664-.608.64-.624.64-1.632v-4.912h1.408v8.272h-1.408v-1.232a3 3 0 0 1-1.072.96 2.7 2.7 0 0 1-1.344.368q-.96 0-1.728-.448a3.17 3.17 0 0 1-1.2-1.232q-.432-.784-.432-1.776v-4.912h1.408zm11.966 3.568q-.687 0-1.424-.368-.735-.368-1.264-1.216v1.488h-1.408v-11.68h1.408v4.992q.529-.848 1.264-1.216.737-.368 1.44-.368 1.152 0 2.048.544a3.63 3.63 0 0 1 1.392 1.472q.512.944.512 2.16t-.512 2.176q-.495.944-1.408 1.488-.896.528-2.048.528m-2.688-4.176q0 .816.352 1.504.369.688.976 1.088.609.4 1.312.4.753 0 1.344-.384.609-.384.928-1.056.336-.688.336-1.552t-.336-1.536a2.35 2.35 0 0 0-.928-1.056 2.4 2.4 0 0 0-1.344-.384q-.703 0-1.312.4-.607.4-.976 1.088a3.2 3.2 0 0 0-.352 1.488m11.1 4.112q-1.024 0-1.68-.672-.657-.672-.688-1.728v-4.624h-1.376v-1.232h1.376v-2.192h1.408v2.192h1.776v1.232h-1.776v4.528q0 .48.272.832.271.352.688.352.24 0 .432-.032t.384-.08l.256 1.296a5.3 5.3 0 0 1-1.072.128m8.547-4.704q-.112-1.024-.672-1.712-.544-.704-1.648-.704-1.008 0-1.728.688-.704.672-.848 1.744zm-6.288.544q0-1.216.496-2.16.495-.944 1.392-1.472.895-.528 2.032-.528 2.384 0 3.408 2.24.336.896.336 1.904a5 5 0 0 1-.032.624h-6.24q.159 1.04.864 1.696.72.656 1.68.656.768 0 1.264-.24.512-.24.704-.464.207-.24.368-.48l1.12.576q-.369.752-1.264 1.28-.88.528-2.208.528-1.137 0-2.032-.528a3.63 3.63 0 0 1-1.392-1.472q-.496-.944-.496-2.16m13.211 0 3.088 4.128h-1.744l-2.128-2.944-2.096 2.944h-1.76l3.056-4.128-3.088-4.144h1.776l2.112 2.992 2.128-2.992h1.76zm7.565 4.16q-1.024 0-1.68-.672t-.688-1.728v-4.624h-1.376v-1.232h1.376v-2.192h1.408v2.192h1.776v1.232h-1.776v4.528q0 .48.272.832a.83.83 0 0 0 .688.352q.24 0 .432-.032t.384-.08l.256 1.296a5.3 5.3 0 0 1-1.072.128"/><path fill="#6B6B6B" d="M298.576 162.576a.6.6 0 0 0 0 .848l3.818 3.819a.601.601 0 0 0 .849-.849L299.849 163l3.394-3.394a.601.601 0 0 0-.849-.849zm310.848.848a.6.6 0 0 0 0-.848l-3.818-3.819a.601.601 0 0 0-.849.849l3.394 3.394-3.394 3.394a.601.601 0 0 0 .849.849zM299 163.6h310v-1.2H299zM455.418 178.054h-5.614v3.248h4.718v1.26h-4.718v4.536h-1.456v-10.304h7.07zm3.024 1.764v7.28h-1.456v-7.28zm-1.554-2.38q0-.364.224-.588a.82.82 0 0 1 .602-.238q.365 0 .588.238a.77.77 0 0 1 .238.588.8.8 0 0 1-.238.588.77.77 0 0 1-.588.238.85.85 0 0 1-.602-.224.85.85 0 0 1-.224-.602m4.813-.644v10.304h-1.456v-10.304zm3.142 0v10.304h-1.456v-10.304z"/><path fill="red" fill-opacity=".1" d="M633 47v24H275V47zM633 122v20H275v-20z"/><path fill="#6B6B6B" d="M269.424 46.576a.6.6 0 0 0-.848 0l-3.819 3.818a.6.6 0 0 0 .849.849L269 47.848l3.394 3.395a.6.6 0 0 0 .849-.849zm-.848 24.848a.6.6 0 0 0 .848 0l3.819-3.818a.6.6 0 0 0-.849-.849L269 70.151l-3.394-3.394a.6.6 0 0 0-.849.849zM268.4 47v24h1.2V47zM269.424 121.576a.6.6 0 0 0-.848 0l-3.819 3.818a.601.601 0 0 0 .849.849l3.394-3.394 3.394 3.394a.601.601 0 0 0 .849-.849zm-.848 20.848a.6.6 0 0 0 .848 0l3.819-3.818a.601.601 0 0 0-.849-.849L269 141.151l-3.394-3.394a.601.601 0 0 0-.849.849zM268.4 122v20h1.2v-20zM227.276 60.768l1.428-1.316a62 62 0 0 0 1.806-1.68q.686-.672 1.148-1.372.462-.714.462-1.344 0-.868-.504-1.414-.49-.56-1.274-.56-.602 0-1.162.392a2.35 2.35 0 0 0-.826 1.008l-1.274-.56a3.56 3.56 0 0 1 1.33-1.554q.924-.615 1.932-.616.938 0 1.666.42.742.42 1.148 1.176.42.742.42 1.708 0 .953-.574 1.89a8.6 8.6 0 0 1-1.372 1.736 36 36 0 0 1-2.044 1.862l-.252.224h4.396v1.274h-6.314zm13.667-2.646h1.302v1.274h-1.302v2.646h-1.442v-2.646h-4.396l-.14-1.274 4.592-6.272h1.386zm-1.442 0v-3.85l-2.8 3.85zm8.066 2.842q.938 0 1.526-.686.588-.7.588-1.82 0-1.106-.588-1.792t-1.526-.686a1.93 1.93 0 0 0-1.092.336 2.37 2.37 0 0 0-.798.91 2.6 2.6 0 0 0-.294 1.232q0 .686.294 1.26t.798.91 1.092.336m-3.654-6.188h1.456v1.26q.378-.63 1.05-.938.672-.322 1.232-.322 1.022 0 1.806.476.798.462 1.232 1.302.448.825.448 1.904t-.448 1.932q-.434.84-1.232 1.316-.784.462-1.806.462-.56 0-1.232-.322a2.5 2.5 0 0 1-1.05-.966v4.354h-1.456zm12.367 3.668 2.702 3.654h-1.806l-1.75-2.478-1.736 2.478h-1.806l2.66-3.654-2.716-3.668h1.82l1.778 2.548 1.764-2.548h1.82zM227.119 135.768q.195-.182 1.428-1.316a61 61 0 0 0 1.806-1.68 8.5 8.5 0 0 0 1.148-1.372q.462-.714.462-1.344 0-.868-.504-1.414-.49-.56-1.274-.56-.603 0-1.162.392a2.33 2.33 0 0 0-.826 1.008l-1.274-.56a3.56 3.56 0 0 1 1.33-1.554q.924-.616 1.932-.616.937 0 1.666.42.741.42 1.148 1.176.42.742.42 1.708 0 .952-.574 1.89a8.7 8.7 0 0 1-1.372 1.736 36 36 0 0 1-2.044 1.862l-.252.224h4.396v1.274h-6.314zm11.497.084q.686 0 1.218-.49.546-.49.84-1.372.294-.896.294-2.044 0-1.162-.294-2.044t-.826-1.372a1.76 1.76 0 0 0-1.232-.49q-.7 0-1.246.49-.532.49-.826 1.372t-.294 2.044q0 1.148.294 2.044.294.882.826 1.372.546.49 1.246.49m-3.822-3.906q0-1.498.49-2.674.49-1.19 1.358-1.848a3.14 3.14 0 0 1 1.974-.672 3.14 3.14 0 0 1 1.974.672q.867.658 1.344 1.848.49 1.176.49 2.674 0 1.499-.49 2.688-.477 1.176-1.344 1.834a3.18 3.18 0 0 1-1.974.658 3.18 3.18 0 0 1-1.974-.658q-.869-.658-1.358-1.834-.49-1.19-.49-2.688m12.93 4.018q.938 0 1.526-.686.588-.7.588-1.82 0-1.106-.588-1.792-.587-.686-1.526-.686a1.93 1.93 0 0 0-1.092.336 2.36 2.36 0 0 0-.798.91 2.6 2.6 0 0 0-.294 1.232q0 .686.294 1.26t.798.91 1.092.336m-3.654-6.188h1.456v1.26q.378-.63 1.05-.938.672-.322 1.232-.322 1.023 0 1.806.476.798.462 1.232 1.302.448.826.448 1.904t-.448 1.932q-.434.84-1.232 1.316-.783.462-1.806.462-.56 0-1.232-.322a2.5 2.5 0 0 1-1.05-.966v4.354h-1.456zm12.367 3.668 2.702 3.654h-1.806l-1.75-2.478-1.736 2.478h-1.806l2.66-3.654-2.716-3.668h1.82l1.778 2.548 1.764-2.548h1.82z"/><path stroke="#BB362A" d="M299 47v135M609 47v135"/></svg>

<svg width="908" height="218" viewBox="0 0 908 218" fill="none" xmlns="http://www.w3.org/2000/svg">
<path d="M275.5 55C275.5 50.8579 278.858 47.5 283 47.5H625C629.142 47.5 632.5 50.8579 632.5 55V134C632.5 138.142 629.142 141.5 625 141.5H283C278.858 141.5 275.5 138.142 275.5 134V55Z" fill="white"/>
<path d="M275.5 55C275.5 50.8579 278.858 47.5 283 47.5H625C629.142 47.5 632.5 50.8579 632.5 55V134C632.5 138.142 629.142 141.5 625 141.5H283C278.858 141.5 275.5 138.142 275.5 134V55Z" stroke="#C2C2C2"/>
<path d="M308.648 76.776H305.144V87.112H303.48V76.776H299.96V75.336H308.648V76.776ZM314.773 82.312C314.698 81.6933 314.479 81.176 314.117 80.76C313.754 80.3333 313.231 80.12 312.549 80.12C311.93 80.12 311.391 80.3333 310.933 80.76C310.485 81.176 310.213 81.6987 310.117 82.328L314.773 82.312ZM308.517 82.952C308.517 82.1307 308.687 81.4 309.029 80.76C309.37 80.12 309.839 79.624 310.437 79.272C311.045 78.9093 311.738 78.728 312.517 78.728C313.615 78.728 314.421 78.9947 314.933 79.528C315.455 80.0613 315.807 80.552 315.989 81C316.234 81.5973 316.357 82.2587 316.357 82.984C316.357 83.1333 316.351 83.2667 316.341 83.384C316.33 83.4907 316.325 83.56 316.325 83.592H310.117C310.213 84.232 310.49 84.7547 310.949 85.16C311.407 85.5653 311.935 85.768 312.533 85.768C313.013 85.768 313.407 85.6933 313.717 85.544C314.037 85.3947 314.255 85.256 314.373 85.128C314.49 85 314.602 84.856 314.709 84.696L316.053 85.304C315.797 85.8267 315.37 86.2693 314.773 86.632C314.175 86.984 313.423 87.16 312.517 87.16C311.738 87.16 311.045 86.984 310.437 86.632C309.839 86.2693 309.37 85.768 309.029 85.128C308.687 84.488 308.517 83.7627 308.517 82.952ZM322.269 82.936L325.357 87.112H323.293L321.293 84.28L319.309 87.112H317.245L320.285 82.936L317.181 78.744H319.261L321.293 81.656L323.309 78.744H325.389L322.269 82.936ZM329.986 87.16C329.261 87.16 328.663 86.92 328.194 86.44C327.725 85.96 327.485 85.3413 327.474 84.584V80.264H326.034V78.808H327.474V76.52H329.138V78.808H330.93V80.264H329.138V84.504C329.138 84.792 329.218 85.0427 329.378 85.256C329.538 85.4693 329.741 85.5813 329.986 85.592C330.167 85.592 330.338 85.576 330.498 85.544C330.669 85.5013 330.781 85.4747 330.834 85.464L331.186 87.016C330.663 87.112 330.263 87.16 329.986 87.16Z" fill="#121212"/>
<path d="M301.448 111.88C301.779 112.509 302.216 113.016 302.76 113.4C303.315 113.773 303.885 113.96 304.472 113.96C305.24 113.96 305.864 113.779 306.344 113.416C306.835 113.043 307.08 112.557 307.08 111.96C307.08 111.544 306.957 111.197 306.712 110.92C306.467 110.643 306.163 110.419 305.8 110.248C305.448 110.077 304.957 109.88 304.328 109.656C303.56 109.389 302.941 109.139 302.472 108.904C302.013 108.669 301.619 108.333 301.288 107.896C300.957 107.459 300.792 106.899 300.792 106.216C300.792 105.608 300.957 105.08 301.288 104.632C301.629 104.184 302.088 103.843 302.664 103.608C303.24 103.373 303.88 103.256 304.584 103.256C305.427 103.256 306.184 103.48 306.856 103.928C307.528 104.376 308.003 105.016 308.28 105.848L307.016 106.296C306.845 105.741 306.531 105.304 306.072 104.984C305.624 104.664 305.139 104.499 304.616 104.488C303.923 104.488 303.341 104.648 302.872 104.968C302.413 105.277 302.184 105.693 302.184 106.216C302.184 106.621 302.307 106.963 302.552 107.24C302.797 107.517 303.096 107.747 303.448 107.928C303.811 108.099 304.307 108.296 304.936 108.52C305.704 108.797 306.323 109.059 306.792 109.304C307.261 109.539 307.661 109.875 307.992 110.312C308.323 110.739 308.488 111.293 308.488 111.976C308.488 112.605 308.317 113.165 307.976 113.656C307.645 114.147 307.176 114.525 306.568 114.792C305.96 115.059 305.267 115.192 304.488 115.192C303.613 115.192 302.813 114.963 302.088 114.504C301.363 114.035 300.755 113.373 300.264 112.52L301.448 111.88ZM312.057 111.592C312.057 112.275 312.249 112.84 312.633 113.288C313.017 113.725 313.513 113.944 314.121 113.944C314.804 113.944 315.359 113.741 315.785 113.336C316.212 112.92 316.425 112.376 316.425 111.704V106.792H317.833V115.064H316.425V113.832C316.159 114.227 315.801 114.547 315.353 114.792C314.916 115.037 314.468 115.16 314.009 115.16C313.369 115.16 312.793 115.011 312.281 114.712C311.769 114.413 311.369 114.003 311.081 113.48C310.793 112.957 310.649 112.365 310.649 111.704V106.792H312.057V111.592ZM324.023 115.16C323.565 115.16 323.09 115.037 322.599 114.792C322.109 114.547 321.687 114.141 321.335 113.576V115.064H319.927V103.384H321.335V108.376C321.687 107.811 322.109 107.405 322.599 107.16C323.09 106.915 323.57 106.792 324.039 106.792C324.807 106.792 325.49 106.973 326.087 107.336C326.685 107.688 327.149 108.179 327.479 108.808C327.821 109.437 327.991 110.157 327.991 110.968C327.991 111.779 327.821 112.504 327.479 113.144C327.149 113.773 326.679 114.269 326.071 114.632C325.474 114.984 324.791 115.16 324.023 115.16ZM321.335 110.984C321.335 111.528 321.453 112.029 321.687 112.488C321.933 112.947 322.258 113.309 322.663 113.576C323.069 113.843 323.506 113.976 323.975 113.976C324.477 113.976 324.925 113.848 325.319 113.592C325.725 113.336 326.034 112.984 326.247 112.536C326.471 112.077 326.583 111.56 326.583 110.984C326.583 110.408 326.471 109.896 326.247 109.448C326.034 108.989 325.725 108.637 325.319 108.392C324.925 108.136 324.477 108.008 323.975 108.008C323.506 108.008 323.069 108.141 322.663 108.408C322.258 108.675 321.933 109.037 321.687 109.496C321.453 109.955 321.335 110.451 321.335 110.984ZM332.435 115.096C331.752 115.096 331.192 114.872 330.755 114.424C330.317 113.976 330.088 113.4 330.067 112.696V108.072H328.691V106.84H330.067V104.648H331.475V106.84H333.251V108.072H331.475V112.6C331.475 112.92 331.565 113.197 331.747 113.432C331.928 113.667 332.157 113.784 332.435 113.784C332.595 113.784 332.739 113.773 332.867 113.752C332.995 113.731 333.123 113.704 333.251 113.672L333.507 114.968C333.101 115.053 332.744 115.096 332.435 115.096ZM340.982 110.392C340.907 109.709 340.683 109.139 340.31 108.68C339.947 108.211 339.398 107.976 338.662 107.976C337.99 107.976 337.414 108.205 336.934 108.664C336.464 109.112 336.182 109.693 336.086 110.408L340.982 110.392ZM334.694 110.936C334.694 110.125 334.859 109.405 335.19 108.776C335.52 108.147 335.984 107.656 336.582 107.304C337.179 106.952 337.856 106.776 338.614 106.776C340.203 106.776 341.339 107.523 342.022 109.016C342.246 109.613 342.358 110.248 342.358 110.92C342.358 111.101 342.352 111.251 342.342 111.368C342.331 111.475 342.326 111.533 342.326 111.544H336.086C336.192 112.237 336.48 112.803 336.95 113.24C337.43 113.677 337.99 113.896 338.63 113.896C339.142 113.896 339.563 113.816 339.894 113.656C340.235 113.496 340.47 113.341 340.598 113.192C340.736 113.032 340.859 112.872 340.966 112.712L342.086 113.288C341.84 113.789 341.419 114.216 340.822 114.568C340.235 114.92 339.499 115.096 338.614 115.096C337.856 115.096 337.179 114.92 336.582 114.568C335.984 114.216 335.52 113.725 335.19 113.096C334.859 112.467 334.694 111.747 334.694 110.936ZM347.905 110.936L350.993 115.064H349.249L347.121 112.12L345.025 115.064H343.265L346.321 110.936L343.233 106.792H345.009L347.121 109.784L349.249 106.792H351.009L347.905 110.936ZM355.47 115.096C354.787 115.096 354.227 114.872 353.79 114.424C353.353 113.976 353.123 113.4 353.102 112.696V108.072H351.726V106.84H353.102V104.648H354.51V106.84H356.286V108.072H354.51V112.6C354.51 112.92 354.601 113.197 354.782 113.432C354.963 113.667 355.193 113.784 355.47 113.784C355.63 113.784 355.774 113.773 355.902 113.752C356.03 113.731 356.158 113.704 356.286 113.672L356.542 114.968C356.137 115.053 355.779 115.096 355.47 115.096Z" fill="#121212"/>
<path d="M298.576 162.576C298.341 162.81 298.341 163.19 298.576 163.424L302.394 167.243C302.628 167.477 303.008 167.477 303.243 167.243C303.477 167.008 303.477 166.628 303.243 166.394L299.849 163L303.243 159.606C303.477 159.372 303.477 158.992 303.243 158.757C303.008 158.523 302.628 158.523 302.394 158.757L298.576 162.576ZM609.424 163.424C609.659 163.19 609.659 162.81 609.424 162.576L605.606 158.757C605.372 158.523 604.992 158.523 604.757 158.757C604.523 158.992 604.523 159.372 604.757 159.606L608.151 163L604.757 166.394C604.523 166.628 604.523 167.008 604.757 167.243C604.992 167.477 605.372 167.477 605.606 167.243L609.424 163.424ZM299 163.6H609V162.4H299V163.6Z" fill="#6B6B6B"/>
<path d="M455.418 178.054H449.804V181.302H454.522V182.562H449.804V187.098H448.348V176.794H455.418V178.054ZM458.442 179.818V187.098H456.986V179.818H458.442ZM456.888 177.438C456.888 177.195 456.963 176.999 457.112 176.85C457.271 176.691 457.472 176.612 457.714 176.612C457.957 176.612 458.153 176.691 458.302 176.85C458.461 176.999 458.54 177.195 458.54 177.438C458.54 177.671 458.461 177.867 458.302 178.026C458.153 178.185 457.957 178.264 457.714 178.264C457.472 178.264 457.271 178.189 457.112 178.04C456.963 177.881 456.888 177.681 456.888 177.438ZM461.701 176.794V187.098H460.245V176.794H461.701ZM464.843 176.794V187.098H463.387V176.794H464.843Z" fill="#6B6B6B"/>
<rect x="633" y="47" width="24" height="358" transform="rotate(90 633 47)" fill="#FF0000" fill-opacity="0.1"/>
<rect x="633" y="122" width="20" height="358" transform="rotate(90 633 122)" fill="#FF0000" fill-opacity="0.1"/>
<path d="M269.424 46.5757C269.19 46.3414 268.81 46.3414 268.576 46.5757L264.757 50.3941C264.523 50.6284 264.523 51.0083 264.757 51.2426C264.992 51.477 265.372 51.477 265.606 51.2426L269 47.8485L272.394 51.2426C272.628 51.477 273.008 51.477 273.243 51.2426C273.477 51.0083 273.477 50.6284 273.243 50.3941L269.424 46.5757ZM268.576 71.4243C268.81 71.6586 269.19 71.6586 269.424 71.4243L273.243 67.6059C273.477 67.3716 273.477 66.9917 273.243 66.7574C273.008 66.523 272.628 66.523 272.394 66.7574L269 70.1515L265.606 66.7574C265.372 66.523 264.992 66.523 264.757 66.7574C264.523 66.9917 264.523 67.3716 264.757 67.6059L268.576 71.4243ZM268.4 47L268.4 71L269.6 71L269.6 47L268.4 47Z" fill="#6B6B6B"/>
<path d="M269.424 121.576C269.19 121.341 268.81 121.341 268.576 121.576L264.757 125.394C264.523 125.628 264.523 126.008 264.757 126.243C264.992 126.477 265.372 126.477 265.606 126.243L269 122.849L272.394 126.243C272.628 126.477 273.008 126.477 273.243 126.243C273.477 126.008 273.477 125.628 273.243 125.394L269.424 121.576ZM268.576 142.424C268.81 142.659 269.19 142.659 269.424 142.424L273.243 138.606C273.477 138.372 273.477 137.992 273.243 137.757C273.008 137.523 272.628 137.523 272.394 137.757L269 141.151L265.606 137.757C265.372 137.523 264.992 137.523 264.757 137.757C264.523 137.992 264.523 138.372 264.757 138.606L268.576 142.424ZM268.4 122L268.4 142L269.6 142L269.6 122L268.4 122Z" fill="#6B6B6B"/>
<path d="M227.276 60.768C227.407 60.6467 227.883 60.208 228.704 59.452C229.46 58.7707 230.062 58.2107 230.51 57.772C230.967 57.324 231.35 56.8667 231.658 56.4C231.966 55.924 232.12 55.476 232.12 55.056C232.12 54.4773 231.952 54.006 231.616 53.642C231.289 53.2687 230.865 53.082 230.342 53.082C229.941 53.082 229.553 53.2127 229.18 53.474C228.807 53.7353 228.531 54.0713 228.354 54.482L227.08 53.922C227.36 53.2873 227.803 52.7693 228.41 52.368C229.026 51.9573 229.67 51.752 230.342 51.752C230.967 51.752 231.523 51.892 232.008 52.172C232.503 52.452 232.885 52.844 233.156 53.348C233.436 53.8427 233.576 54.412 233.576 55.056C233.576 55.6907 233.385 56.3207 233.002 56.946C232.629 57.5713 232.171 58.15 231.63 58.682C231.098 59.214 230.417 59.8347 229.586 60.544L229.334 60.768H233.73V62.042H227.416L227.276 60.768ZM240.943 58.122H242.245V59.396H240.943V62.042H239.501V59.396H235.105L234.965 58.122L239.557 51.85H240.943V58.122ZM239.501 58.122V54.272L236.701 58.122H239.501ZM247.567 60.964C248.192 60.964 248.701 60.7353 249.093 60.278C249.485 59.8113 249.681 59.2047 249.681 58.458C249.681 57.7207 249.485 57.1233 249.093 56.666C248.701 56.2087 248.192 55.98 247.567 55.98C247.175 55.98 246.811 56.092 246.475 56.316C246.139 56.54 245.873 56.8433 245.677 57.226C245.481 57.5993 245.383 58.01 245.383 58.458C245.383 58.9153 245.481 59.3353 245.677 59.718C245.873 60.1007 246.139 60.404 246.475 60.628C246.811 60.852 247.175 60.964 247.567 60.964ZM243.913 54.776H245.369V56.036C245.621 55.616 245.971 55.3033 246.419 55.098C246.867 54.8833 247.278 54.776 247.651 54.776C248.332 54.776 248.934 54.9347 249.457 55.252C249.989 55.56 250.4 55.994 250.689 56.554C250.988 57.1047 251.137 57.7393 251.137 58.458C251.137 59.1767 250.988 59.8207 250.689 60.39C250.4 60.95 249.989 61.3887 249.457 61.706C248.934 62.014 248.332 62.168 247.651 62.168C247.278 62.168 246.867 62.0607 246.419 61.846C245.971 61.622 245.621 61.3 245.369 60.88V65.234H243.913V54.776ZM256.28 58.444L258.982 62.098H257.176L255.426 59.62L253.69 62.098H251.884L254.544 58.444L251.828 54.776H253.648L255.426 57.324L257.19 54.776H259.01L256.28 58.444Z" fill="#6B6B6B"/>
<path d="M227.119 135.768C227.249 135.647 227.725 135.208 228.547 134.452C229.303 133.771 229.905 133.211 230.353 132.772C230.81 132.324 231.193 131.867 231.501 131.4C231.809 130.924 231.963 130.476 231.963 130.056C231.963 129.477 231.795 129.006 231.459 128.642C231.132 128.269 230.707 128.082 230.185 128.082C229.783 128.082 229.396 128.213 229.023 128.474C228.649 128.735 228.374 129.071 228.197 129.482L226.923 128.922C227.203 128.287 227.646 127.769 228.253 127.368C228.869 126.957 229.513 126.752 230.185 126.752C230.81 126.752 231.365 126.892 231.851 127.172C232.345 127.452 232.728 127.844 232.999 128.348C233.279 128.843 233.419 129.412 233.419 130.056C233.419 130.691 233.227 131.321 232.845 131.946C232.471 132.571 232.014 133.15 231.473 133.682C230.941 134.214 230.259 134.835 229.429 135.544L229.177 135.768H233.573V137.042H227.259L227.119 135.768ZM238.616 135.852C239.073 135.852 239.479 135.689 239.834 135.362C240.198 135.035 240.478 134.578 240.674 133.99C240.87 133.393 240.968 132.711 240.968 131.946C240.968 131.171 240.87 130.49 240.674 129.902C240.478 129.314 240.202 128.857 239.848 128.53C239.493 128.203 239.082 128.04 238.616 128.04C238.149 128.04 237.734 128.203 237.37 128.53C237.015 128.857 236.74 129.314 236.544 129.902C236.348 130.49 236.25 131.171 236.25 131.946C236.25 132.711 236.348 133.393 236.544 133.99C236.74 134.578 237.015 135.035 237.37 135.362C237.734 135.689 238.149 135.852 238.616 135.852ZM234.794 131.946C234.794 130.947 234.957 130.056 235.284 129.272C235.61 128.479 236.063 127.863 236.642 127.424C237.22 126.976 237.878 126.752 238.616 126.752C239.353 126.752 240.011 126.976 240.59 127.424C241.168 127.863 241.616 128.479 241.934 129.272C242.26 130.056 242.424 130.947 242.424 131.946C242.424 132.945 242.26 133.841 241.934 134.634C241.616 135.418 241.168 136.029 240.59 136.468C240.011 136.907 239.353 137.126 238.616 137.126C237.878 137.126 237.22 136.907 236.642 136.468C236.063 136.029 235.61 135.418 235.284 134.634C234.957 133.841 234.794 132.945 234.794 131.946ZM247.724 135.964C248.35 135.964 248.858 135.735 249.25 135.278C249.642 134.811 249.838 134.205 249.838 133.458C249.838 132.721 249.642 132.123 249.25 131.666C248.858 131.209 248.35 130.98 247.724 130.98C247.332 130.98 246.968 131.092 246.632 131.316C246.296 131.54 246.03 131.843 245.834 132.226C245.638 132.599 245.54 133.01 245.54 133.458C245.54 133.915 245.638 134.335 245.834 134.718C246.03 135.101 246.296 135.404 246.632 135.628C246.968 135.852 247.332 135.964 247.724 135.964ZM244.07 129.776H245.526V131.036C245.778 130.616 246.128 130.303 246.576 130.098C247.024 129.883 247.435 129.776 247.808 129.776C248.49 129.776 249.092 129.935 249.614 130.252C250.146 130.56 250.557 130.994 250.846 131.554C251.145 132.105 251.294 132.739 251.294 133.458C251.294 134.177 251.145 134.821 250.846 135.39C250.557 135.95 250.146 136.389 249.614 136.706C249.092 137.014 248.49 137.168 247.808 137.168C247.435 137.168 247.024 137.061 246.576 136.846C246.128 136.622 245.778 136.3 245.526 135.88V140.234H244.07V129.776ZM256.437 133.444L259.139 137.098H257.333L255.583 134.62L253.847 137.098H252.041L254.701 133.444L251.985 129.776H253.805L255.583 132.324L257.347 129.776H259.167L256.437 133.444Z" fill="#6B6B6B"/>
<path d="M299 47L299 182" stroke="#BB362A"/>
<path d="M609 47L609 182" stroke="#BB362A"/>
</svg>
